X:4
T:Polka  CG (5letras transposed)
%%MIDI program 21
R:polka
M:2/4
L:1/16
K:C transpose=3 %%MIDI gchordon
E2F2 |: "C"G2E2 "G7"F2d2 | "C"E2c2 cGEC | "G7"B,2A2 AGFD | "C"CEGc e2EF | G2e2 "G7"F2d2 | 
"C"E2c2 cGEC | "G7"B,2A2 AGFD |1 "C"C2E2 C2EF :|2 "C"C2E2 C2z2 || [K:G] "D7"D3E D3E | "G"D2B2B4 | 
"D7"B2A2 c2F2 | "G"G2BA G2G2 | "D7"D3E D3E | "G"D2B2B4 | "D7"B2A2 c2F2 | "G"G2BAG4 |] 
% pk00996

